src/other/firefox/WhiteSur/icons/key-symbolic.svg

<svg width="16px" height="16px" version="1.1" viewBox="0 0 16 16" xmlns="http://www.w3.org/2000/svg">
 <rect x="8" y="7" width="8" height="1" rx=".5" ry=".5" fill="#333333"/>
 <rect x="11" y="7" width="1" height="5" rx=".5" ry=".5" fill="#333333"/>
 <rect x="13" y="7" width="1" height="5" rx=".5" ry=".5" fill="#333333"/>
 <path d="m4.5 3a4.5 4.5 0 0 0-4.5 4.5 4.5 4.5 0 0 0 4.5 4.5 4.5 4.5 0 0 0 4.5-4.5 4.5 4.5 0 0 0-4.5-4.5zm0 1a3.5 3.5 0 0 1 3.5 3.5 3.5 3.5 0 0 1-3.5 3.5 3.5 3.5 0 0 1-3.5-3.5 3.5 3.5 0 0 1 3.5-3.5z" fill="#333333"/>
</svg>

<?xml version="1.0" encoding="UTF-8" standalone="no"?>
<svg
   width="16px"
   height="16px"
   version="1.1"
   viewBox="0 0 16 16"
   id="svg111"
   sodipodi:docname="key-symbolic.svg"
   inkscape:version="1.2 (dc2aedaf03, 2022-05-15)"
   xmlns:inkscape="http://www.inkscape.org/namespaces/inkscape"
   xmlns:sodipodi="http://sodipodi.sourceforge.net/DTD/sodipodi-0.dtd"
   xmlns="http://www.w3.org/2000/svg"
   xmlns:svg="http://www.w3.org/2000/svg">
  <defs
     id="defs115" />
  <sodipodi:namedview
     id="namedview113"
     pagecolor="#ffffff"
     bordercolor="#666666"
     borderopacity="1.0"
     inkscape:showpageshadow="2"
     inkscape:pageopacity="0.0"
     inkscape:pagecheckerboard="0"
     inkscape:deskcolor="#d1d1d1"
     showgrid="true"
     inkscape:zoom="10.429825"
     inkscape:cx="-9.3481914"
     inkscape:cy="8.4373419"
     inkscape:window-width="1280"
     inkscape:window-height="650"
     inkscape:window-x="0"
     inkscape:window-y="34"
     inkscape:window-maximized="1"
     inkscape:current-layer="svg111">
    <inkscape:grid
       type="xygrid"
       id="grid300" />
  </sodipodi:namedview>
  <filter
     id="a"
     x="0"
     y="0"
     width="1"
     height="1">
    <feColorMatrix
       in="SourceGraphic"
       values="0 0 0 0 1 0 0 0 0 1 0 0 0 0 1 0 0 0 1 0"
       id="feColorMatrix2" />
  </filter>
  <mask
     id="b">
    <g
       filter="url(#a)"
       id="g7">
      <path
         d="m0 0h16v16h-16z"
         fill-opacity=".3"
         id="path5" />
    </g>
  </mask>
  <clipPath
     id="c">
    <path
       d="m0 0h1024v800h-1024z"
       id="path10" />
  </clipPath>
  <mask
     id="d">
    <g
       filter="url(#a)"
       id="g15">
      <path
         d="m0 0h16v16h-16z"
         fill-opacity=".05"
         id="path13" />
    </g>
  </mask>
  <clipPath
     id="e">
    <path
       d="m0 0h1024v800h-1024z"
       id="path18" />
  </clipPath>
  <mask
     id="f">
    <g
       filter="url(#a)"
       id="g23">
      <path
         d="m0 0h16v16h-16z"
         fill-opacity=".05"
         id="path21" />
    </g>
  </mask>
  <clipPath
     id="g">
    <path
       d="m0 0h1024v800h-1024z"
       id="path26" />
  </clipPath>
  <mask
     id="h">
    <g
       filter="url(#a)"
       id="g31">
      <path
         d="m0 0h16v16h-16z"
         fill-opacity=".05"
         id="path29" />
    </g>
  </mask>
  <clipPath
     id="i">
    <path
       d="m0 0h1024v800h-1024z"
       id="path34" />
  </clipPath>
  <mask
     id="j">
    <g
       filter="url(#a)"
       id="g39">
      <path
         d="m0 0h16v16h-16z"
         fill-opacity=".05"
         id="path37" />
    </g>
  </mask>
  <clipPath
     id="k">
    <path
       d="m0 0h1024v800h-1024z"
       id="path42" />
  </clipPath>
  <mask
     id="l">
    <g
       filter="url(#a)"
       id="g47">
      <path
         d="m0 0h16v16h-16z"
         fill-opacity=".05"
         id="path45" />
    </g>
  </mask>
  <clipPath
     id="m">
    <path
       d="m0 0h1024v800h-1024z"
       id="path50" />
  </clipPath>
  <mask
     id="n">
    <g
       filter="url(#a)"
       id="g55">
      <path
         d="m0 0h16v16h-16z"
         fill-opacity=".05"
         id="path53" />
    </g>
  </mask>
  <clipPath
     id="o">
    <path
       d="m0 0h1024v800h-1024z"
       id="path58" />
  </clipPath>
  <mask
     id="p">
    <g
       filter="url(#a)"
       id="g63">
      <path
         d="m0 0h16v16h-16z"
         fill-opacity=".3"
         id="path61" />
    </g>
  </mask>
  <clipPath
     id="q">
    <path
       d="m0 0h1024v800h-1024z"
       id="path66" />
  </clipPath>
  <mask
     id="r">
    <g
       filter="url(#a)"
       id="g71">
      <path
         d="m0 0h16v16h-16z"
         fill-opacity=".5"
         id="path69" />
    </g>
  </mask>
  <clipPath
     id="s">
    <path
       d="m0 0h1024v800h-1024z"
       id="path74" />
  </clipPath>
  <mask
     id="t">
    <g
       filter="url(#a)"
       id="g79">
      <path
         d="m0 0h16v16h-16z"
         fill-opacity=".4"
         id="path77" />
    </g>
  </mask>
  <clipPath
     id="u">
    <path
       d="m0 0h1024v800h-1024z"
       id="path82" />
  </clipPath>
  <mask
     id="v">
    <g
       filter="url(#a)"
       id="g87">
      <path
         d="m0 0h16v16h-16z"
         fill-opacity=".4"
         id="path85" />
    </g>
  </mask>
  <clipPath
     id="w">
    <path
       d="m0 0h1024v800h-1024z"
       id="path90" />
  </clipPath>
  <mask
     id="x">
    <g
       filter="url(#a)"
       id="g95">
      <path
         d="m0 0h16v16h-16z"
         fill-opacity=".5"
         id="path93" />
    </g>
  </mask>
  <clipPath
     id="y">
    <path
       d="m0 0h1024v800h-1024z"
       id="path98" />
  </clipPath>
  <mask
     id="z">
    <g
       filter="url(#a)"
       id="g103">
      <path
         d="m0 0h16v16h-16z"
         fill-opacity=".5"
         id="path101" />
    </g>
  </mask>
  <clipPath
     id="A">
    <path
       d="m0 0h1024v800h-1024z"
       id="path106" />
  </clipPath>
  <rect
     id="rect507"
     width="8"
     height="1"
     x="8"
     y="7"
     rx="0.5"
     ry="0.5"
     style="fill:#333333" />
  <rect
     id="rect568"
     width="1"
     height="5"
     x="11"
     y="7"
     rx="0.5"
     ry="0.5"
     style="fill:#333333" />
  <rect
     id="rect570"
     width="1"
     height="5"
     x="13"
     y="7"
     rx="0.5"
     ry="0.5"
     style="fill:#333333" />
  <path
     id="path410"
     d="M 4.5 3 A 4.5 4.5 0 0 0 0 7.5 A 4.5 4.5 0 0 0 4.5 12 A 4.5 4.5 0 0 0 9 7.5 A 4.5 4.5 0 0 0 4.5 3 z M 4.5 4 A 3.5 3.5 0 0 1 8 7.5 A 3.5 3.5 0 0 1 4.5 11 A 3.5 3.5 0 0 1 1 7.5 A 3.5 3.5 0 0 1 4.5 4 z "
     style="fill:#333333" />
</svg>
